img/image/content/socials-3.svg

<svg xmlns="http://www.w3.org/2000/svg" fill="none" viewBox="0.56 0.3 30 30">
<rect x="0.563477" y="0.301758" width="30" height="30" rx="3" fill="#BA0D0D"/>
<path fill-rule="evenodd" clip-rule="evenodd" d="M12.8795 4.56831C11.3582 4.88588 9.83717 5.468 9.40843 5.89674C9.14176 6.16341 9.05707 6.47707 9.18653 6.7188C9.24084 6.82035 10.2977 8.53368 11.5349 10.5261C13.9632 14.4363 14.2325 14.7871 14.8056 14.7871C15.4133 14.7871 15.6461 14.3785 15.6454 13.3133C15.645 12.6665 15.2946 6.9344 15.1692 5.52281C15.0917 4.65087 14.9229 4.46293 14.1891 4.43161C13.8901 4.41884 13.3009 4.48038 12.8795 4.56831ZM20.0079 11.4037C19.0571 12.6104 17.1688 15.3223 17.1242 15.5452C17.03 16.0161 17.5609 16.6597 18.0434 16.6597C18.2863 16.6597 21.5041 15.8808 22.668 15.5402C23.3566 15.3388 23.5225 15.2173 23.5934 14.8627C23.6999 14.3306 22.9836 12.8916 22.0451 11.7522C21.5123 11.1053 21.1667 10.8724 20.7389 10.872C20.4577 10.8717 20.386 10.9239 20.0079 11.4037ZM8.01438 14.6571C7.60062 14.9469 7.33157 16.4294 7.41081 17.9821C7.46324 19.0105 7.6711 19.5883 8.03881 19.7281C8.27458 19.8177 9.27131 19.5363 12.4905 18.4711C13.6248 18.0959 13.8213 17.9189 13.8075 17.2851C13.7928 16.6113 13.7375 16.5802 9.57279 14.9035C8.58322 14.5051 8.2962 14.4597 8.01438 14.6571ZM17.7922 18.6651C17.5464 18.8372 17.3482 19.2254 17.3482 19.5343C17.3482 19.6992 17.7596 20.4553 18.6125 21.858C19.967 24.0854 20.3402 24.5756 20.6822 24.5756C21.174 24.5756 22.1967 23.6206 23.0491 22.3654C23.8645 21.1646 23.9422 20.5209 23.3113 20.1945C22.847 19.9545 18.5157 18.5323 18.2489 18.5323C18.1021 18.5323 17.8965 18.592 17.7922 18.6651ZM14.3214 19.5907C14.1548 19.6619 13.5538 20.3117 12.6536 21.3941C10.7598 23.6709 10.6239 23.8567 10.6239 24.1697C10.6239 24.7009 11.5451 25.31 13.1732 25.8555C14.4492 26.283 15.1889 26.2797 15.4602 25.8454C15.6233 25.5842 15.7006 20.3545 15.5455 20.0725C15.2998 19.6256 14.7479 19.4084 14.3214 19.5907Z" fill="white"/>
</svg>

<svg xmlns="http://www.w3.org/2000/svg" fill="none" viewBox="0.56 0.3 30 30"><rect x=".563" y=".302" width="30" height="30" rx="3" fill="#BA0D0D"/><path fill-rule="evenodd" clip-rule="evenodd" d="M12.88 4.568c-1.522.318-3.043.9-3.472 1.329-.266.266-.35.58-.221.822a406.39 406.39 0 0 0 2.348 3.807c2.428 3.91 2.697 4.261 3.27 4.261.608 0 .841-.409.84-1.474 0-.647-.35-6.379-.476-7.79-.077-.872-.246-1.06-.98-1.091-.299-.013-.888.048-1.31.136Zm7.128 6.836c-.95 1.206-2.84 3.918-2.884 4.141-.094.471.437 1.115.92 1.115.242 0 3.46-.78 4.624-1.12.689-.201.855-.323.925-.677.107-.532-.61-1.971-1.548-3.11-.533-.648-.878-.88-1.306-.881-.281 0-.353.052-.731.532ZM8.014 14.657c-.413.29-.682 1.772-.603 3.325.052 1.029.26 1.606.628 1.746.236.09 1.232-.192 4.452-1.257 1.134-.375 1.33-.552 1.316-1.186-.014-.674-.07-.705-4.234-2.382-.99-.398-1.277-.443-1.559-.246Zm9.778 4.008c-.246.172-.444.56-.444.87 0 .164.412.92 1.265 2.323 1.354 2.227 1.727 2.718 2.07 2.718.491 0 1.514-.955 2.366-2.21.816-1.201.893-1.845.262-2.171-.464-.24-4.795-1.663-5.062-1.663a.933.933 0 0 0-.457.133Zm-3.47.926c-.167.07-.768.72-1.668 1.803-1.894 2.277-2.03 2.463-2.03 2.776 0 .53.921 1.14 2.55 1.685 1.275.428 2.015.425 2.286-.01.163-.26.24-5.49.085-5.772-.245-.447-.797-.665-1.224-.482Z" fill="#fff"/></svg>
